assets/img/twitter.svg

<svg fill="none" height="50" viewBox="0 0 61 50" width="61" xmlns="http://www.w3.org/2000/svg"><path d="m60.312 6.50102c-2.2189.9851-4.6038 1.64853-7.1067 1.94758 2.5557-1.53042 4.5183-3.95547 5.4406-6.84543-2.3898 1.41733-5.0386 2.44767-7.8582 3.00304-2.2541-2.40495-5.4733-3.907724-9.0317-3.907724-7.9888 0-13.8592 7.453574-12.0549 15.191114-10.2807-.5152-19.3979-5.4406-25.50199-12.92689-3.241776 5.56128-1.6812 12.83639 3.82731 16.52049-2.02548-.0653-3.93537-.6207-5.60149-1.548-.1357 5.7322 3.97306 11.0949 9.92387 12.2886-1.7415.4724-3.64889.583-5.58893.2111 1.57314 4.9154 6.14183 8.4914 11.55983 8.592-5.2019 4.0786-11.75585 5.9005-18.31982207 5.1265 5.47584207 3.5107 11.98202207 5.5588 18.96822207 5.5588 22.9739 0 35.9535-19.403 35.1695-36.8055 2.4175-1.7466 4.5159-3.92534 6.1744-6.40568z" fill="#fff"/></svg>

<svg width="61" height="50" viewBox="0 0 61 50" fill="none" xmlns="http://www.w3.org/2000/svg">
<path d="M60.312 6.50102C58.0931 7.48612 55.7082 8.14955 53.2053 8.4486C55.761 6.91818 57.7236 4.49313 58.6459 1.60317C56.2561 3.0205 53.6073 4.05084 50.7877 4.60621C48.5336 2.20126 45.3144 0.698486 41.756 0.698486C33.7672 0.698486 27.8968 8.15206 29.7011 15.8896C19.4204 15.3744 10.3032 10.449 4.19911 2.96271C0.957334 8.52399 2.51791 15.7991 8.02642 19.4832C6.00094 19.4179 4.09105 18.8625 2.42493 17.9352C2.28923 23.6674 6.39799 29.0301 12.3488 30.2238C10.6073 30.6962 8.69991 30.8068 6.75987 30.4349C8.33301 35.3503 12.9017 38.9263 18.3197 39.0269C13.1178 43.1055 6.56385 44.9274 -0.00012207 44.1534C5.47572 47.6641 11.9819 49.7122 18.9681 49.7122C41.942 49.7122 54.9216 30.3092 54.1376 12.9067C56.5551 11.1601 58.6535 8.98136 60.312 6.50102Z" fill="white"/>
</svg>
